svg/Pictogram/pictogram-ghs-pollution.svg

<?xml version="1.0" encoding="UTF-8" standalone="no"?>
<svg height="723.75586" id="svg2" inkscape:output_extension="org.inkscape.output.svg.inkscape" inkscape:version="0.45.1" preserveAspectRatio="xMidYMid meet" sodipodi:docbase="/export/henning/reference/safety/ghs" sodipodi:docname="GHS-pictogram-pollu.svg" sodipodi:version="0.32" version="1.0" viewBox="0 0 579 565" width="723.75586" xmlns="http://www.w3.org/2000/svg" xmlns:cc="http://web.resource.org/cc/" xmlns:dc="http://purl.org/dc/elements/1.1/" xmlns:inkscape="http://www.inkscape.org/namespaces/inkscape" xmlns:rdf="http://www.w3.org/1999/02/22-rdf-syntax-ns#" xmlns:sodipodi="http://sodipodi.sourceforge.net/DTD/sodipodi-0.dtd" xmlns:svg="http://www.w3.org/2000/svg">
  <metadata>
    <rdf:RDF xmlns:cc="http://web.resource.org/cc/" xmlns:dc="http://purl.org/dc/elements/1.1/" xmlns:rdf="http://www.w3.org/1999/02/22-rdf-syntax-ns#">
      <cc:Work rdf:about="">
        <dc:title></dc:title>
        <dc:description></dc:description>
        <dc:subject>
          <rdf:Bag>
            <rdf:li>unsorted</rdf:li>
          </rdf:Bag>
        </dc:subject>
        <dc:publisher>
          <cc:Agent rdf:about="http://www.openclipart.org/">
            <dc:title>Open Clip Art Library, Source: Wikimedia Commons, Source: Wikimedia Commons, Source: Wikimedia Commons</dc:title>
          </cc:Agent>
        </dc:publisher>
        <dc:creator>
          <cc:Agent>
            <dc:title></dc:title>
          </cc:Agent>
        </dc:creator>
        <dc:rights>
          <cc:Agent>
            <dc:title></dc:title>
          </cc:Agent>
        </dc:rights>
        <dc:date></dc:date>
        <dc:format>image/svg+xml</dc:format>
        <dc:type rdf:resource="http://purl.org/dc/dcmitype/StillImage"/>
        <cc:license rdf:resource="http://en.wikipedia.org/wiki/Public_domain"/>
        <dc:language>en</dc:language>
      </cc:Work>
    </rdf:RDF>
  </metadata>
  <defs id="defs15"/>
  <sodipodi:namedview bordercolor="#666666" borderopacity="1.0" gridtolerance="10.0" guidetolerance="10.0" height="204.26mm" id="base" inkscape:current-layer="svg2" inkscape:cx="433.66508" inkscape:cy="357.23713" inkscape:document-units="mm" inkscape:pageopacity="0.0" inkscape:pageshadow="2" inkscape:window-height="978" inkscape:window-width="1280" inkscape:window-x="0" inkscape:window-y="0" inkscape:zoom="0.88084931" objecttolerance="10.0" pagecolor="#ffffff" units="mm" width="204.26mm"/>
  <g id="g2171" transform="matrix(0.8021459,0,0,0.8021459,6.1841697,4.7983477)">
    <g id="g2167">
      <path d="M 176.60458,169.61152 L 0,346.2161 L 176.58101,522.80891 L 353.16204,699.4017 L 529.7784,522.78535 L 706.39476,346.16899 L 529.80196,169.57619 L 353.22093,-7.0048373 L 176.60458,169.61152 z M 501.84015,197.56154 L 650.4476,346.16899 L 501.80482,494.81176 L 353.16204,643.45454 L 204.57816,494.87066 C 122.85997,413.15247 55.994276,346.23966 55.994276,346.16899 C 55.994276,346.0512 353.04426,48.942325 353.16204,48.942325 C 353.19737,48.942325 420.0984,115.81979 501.84015,197.56154 z " id="path8" style="fill:#ff0000;stroke:none"/>
      <path d="M 259.94818,148.69317 C 258.87635,149.97701 257.99298,151.06062 257.99298,151.08418 C 257.99298,151.09595 259.04125,152.17956 260.32508,153.47518 C 263.01056,156.19598 264.41218,157.79784 266.34382,160.36552 C 268.88795,163.73413 270.71359,166.71404 272.59813,170.55379 C 276.52031,178.51596 278.97022,187.47928 280.12449,198.05624 C 280.65452,202.83825 280.96076,208.27984 280.96076,212.88518 L 280.96076,215.64131 L 280.19516,215.57065 C 277.7806,215.34685 273.91731,213.25031 268.73484,209.36345 C 267.67478,208.5743 263.88215,205.5826 260.30153,202.72047 C 251.55021,195.72413 248.52318,193.47446 244.88368,191.29547 C 243.24647,190.31785 239.77186,188.56288 239.66586,188.65712 C 239.61875,188.71601 236.67416,194.32249 236.67416,194.36962 C 236.67416,194.38138 237.13351,194.64051 237.71065,194.94675 C 247.60446,200.28234 258.417,209.08077 271.04338,222.07229 C 272.8337,223.9215 275.70761,226.86608 277.42725,228.62105 C 279.14689,230.37603 280.94898,232.31945 281.45545,232.93193 C 285.22453,237.5726 287.36818,242.96708 288.26333,250.04587 C 288.51068,252.08353 288.73447,255.27545 288.73447,257.03044 L 288.73447,258.11404 L 288.0631,258.31428 C 287.15617,258.57339 285.80166,258.49095 285.10674,258.1376 C 284.82405,257.99626 283.72867,257.21888 282.69218,256.40618 C 273.2695,249.15071 263.58769,244.92229 254.29458,244.00358 C 252.41004,243.81513 248.31117,243.83869 246.50908,244.05069 C 242.03331,244.58072 237.82843,245.88812 234.08292,247.93755 C 232.75198,248.66781 230.76142,249.9163 230.5612,250.15187 C 230.47875,250.26966 231.07945,251.20016 232.85798,253.68538 C 234.17715,255.55815 235.2372,257.12466 235.20187,257.19533 C 235.06052,257.41912 235.30787,257.28956 235.89679,256.84198 C 240.20767,253.54405 246.34419,252.40154 253.34053,253.59116 C 268.28725,256.1235 284.56494,268.09031 290.26565,280.74025 C 290.94879,282.27144 291.72617,284.66244 292.05597,286.27608 L 292.32687,287.63059 L 292.31508,299.40894 C 292.3033,305.88703 292.26797,314.08476 292.20908,317.63005 L 292.12663,324.08458 L 255.97887,324.08458 L 219.83112,324.08458 L 219.83112,336.86409 L 219.83112,349.6436 L 255.81398,349.6436 L 291.79684,349.6436 L 291.72617,355.55634 C 291.69084,358.81893 291.62016,362.98846 291.57305,364.83767 L 291.4906,368.1945 L 291.1137,368.9012 C 288.20444,374.31924 272.88081,382.59942 253.87055,389.0304 C 252.22158,389.59577 250.78462,390.09045 250.6904,390.1258 C 250.12504,390.39669 259.94818,390.6087 263.58769,390.40847 C 269.97156,390.0669 273.44618,389.5251 281.72635,387.56989 C 287.0855,386.3096 288.95825,386.0387 292.29154,386.0387 C 300.34792,386.0387 305.51862,388.73594 309.69993,395.13159 C 310.68931,396.63922 311.99671,399.10089 312.7623,400.93831 C 313.04498,401.58612 313.28055,402.12793 313.29233,402.15148 C 313.30411,402.16326 313.57501,401.55079 313.88125,400.79697 C 314.78818,398.58264 316.53137,394.83714 318.30991,391.33896 C 321.97298,384.08349 325.0589,379.25437 327.60302,376.80448 C 329.36978,375.1084 330.12359,374.89638 333.90444,375.00238 C 339.29892,375.16729 349.33408,376.59246 362.99697,379.13659 C 368.45034,380.16131 368.69768,380.20842 368.41501,380.30264 C 367.44918,380.60888 363.06764,381.88095 359.22789,382.97633 C 347.96779,386.19181 343.11512,387.84078 339.08691,389.80777 C 337.44973,390.6087 335.25895,391.93966 335.25895,392.13988 C 335.25895,392.18701 339.0398,393.52974 343.65691,395.09625 C 348.26225,396.67455 352.09021,397.98195 352.13732,398.01729 C 352.24334,398.08795 351.90175,398.29997 348.86295,400.14916 C 336.67235,407.52241 320.96004,415.04877 304.98859,421.13818 C 297.67423,423.92966 289.99476,426.47377 285.31875,427.65161 C 284.11735,427.94607 283.59911,428.01674 282.55083,428.01674 C 280.91365,428.02852 280.44251,427.85184 278.46374,426.57979 C 277.6746,426.07331 276.80301,425.54328 276.54388,425.40195 C 275.21293,424.73058 272.88081,424.37723 271.17295,424.57747 C 268.16947,424.93082 258.629,427.56917 243.74117,432.16272 C 231.99815,435.79045 210.05509,442.84568 210.05509,442.99881 C 210.05509,443.02235 279.06444,443.04592 363.40921,443.04592 L 516.76332,443.04592 L 516.76332,433.32878 L 516.76332,423.61164 L 516.50419,423.61164 C 516.35108,423.61164 511.78109,423.34074 506.33948,423.01094 C 496.85791,422.4338 496.42211,422.39847 495.82142,422.12756 C 495.37384,421.93911 495.19716,421.79778 495.23251,421.65643 C 495.25605,421.53865 495.84497,421.20886 496.79902,420.78483 C 499.51982,419.58344 500.81544,418.7354 502.45263,417.08644 C 503.46557,416.07349 503.72468,415.73193 504.19582,414.77788 C 504.87897,413.41158 505.13809,412.25731 505.0792,410.92635 C 505.03208,410.10186 504.96141,409.83097 504.57273,409.04181 C 503.9956,407.86398 502.67641,406.4977 501.62814,406.00301 L 500.92144,405.66144 L 496.15121,405.54365 C 488.3775,405.36698 483.98418,405.62609 466.70534,407.31041 C 464.98569,407.4753 463.21894,407.59308 462.75959,407.56952 C 461.29908,407.4753 460.67482,406.89816 461.3933,406.29746 C 461.88799,405.87344 465.85729,404.60138 475.3271,401.83347 C 485.07956,398.97132 488.04771,397.88773 490.5565,396.22697 C 492.29969,395.0727 493.46575,393.57685 493.78376,392.06922 C 494.77314,387.38143 490.22671,381.56293 480.66268,375.26151 C 477.7652,373.36519 473.65456,370.99774 470.68641,369.53723 C 470.10928,369.25455 469.64992,368.99542 469.64992,368.96009 C 469.64992,368.86587 471.35779,367.79404 475.24464,365.42659 C 479.87353,362.61157 481.53428,361.55152 483.96062,359.91433 C 488.33039,356.95796 492.20546,353.81313 495.20894,350.77433 L 496.32789,349.6436 L 505.71524,349.6436 L 515.11436,349.6436 L 515.11436,336.86409 L 515.11436,324.08458 L 512.87647,324.08458 C 511.65152,324.08458 510.63858,324.04925 510.63858,323.99036 C 510.63858,323.94323 510.85059,323.08342 511.09794,322.08226 C 512.39355,316.99401 513.22982,311.32863 513.57139,305.23922 C 513.72452,302.64798 513.86585,298.28999 513.79517,298.28999 C 513.73628,298.28999 485.58603,304.03782 485.29157,304.1085 C 485.15024,304.14384 485.75094,302.22396 487.80036,296.14633 C 489.28444,291.74123 490.4976,288.1135 490.4976,288.08994 C 490.4976,287.99572 485.69204,288.04283 483.43059,288.16061 C 463.96099,289.18534 448.63735,293.80244 435.39849,302.67155 C 430.86382,305.69857 426.83562,309.06718 422.13606,313.69607 C 418.83813,316.97046 416.43535,319.73837 414.06789,323.04809 L 413.33763,324.08458 L 373.19702,324.08458 L 333.05639,324.08458 L 332.98574,320.04461 C 332.93861,317.83027 332.86795,310.79861 332.83261,304.41474 L 332.76193,292.81306 L 336.61346,288.57286 C 346.55439,277.65432 352.4789,271.29401 355.75328,268.00785 L 358.16784,265.56974 L 359.11011,265.3224 C 360.02882,265.08683 363.53877,264.30945 370.35843,262.83716 C 374.73999,261.89489 378.37949,261.03508 379.63977,260.64638 C 380.55849,260.37549 380.72338,260.26949 381.46541,259.56279 C 385.12848,256.05283 395.59943,242.22505 401.9833,232.44902 C 405.54037,227.0192 409.67456,220.03464 409.54501,219.69307 C 409.49789,219.57529 406.5533,215.87687 406.16462,215.45287 C 406.11751,215.39397 405.52859,216.08889 404.869,216.98405 C 397.34264,227.08987 379.14509,246.77149 375.15223,249.11538 C 374.20996,249.65719 372.40786,249.88098 364.46926,250.411 C 353.69207,251.12948 350.37057,251.67129 348.38003,253.0258 C 346.1186,254.56875 341.72526,258.3025 335.85965,263.69697 C 334.61114,264.85126 333.56287,265.76997 333.53931,265.74642 C 333.50398,265.72286 333.78666,265.07505 334.15179,264.29767 C 334.50514,263.53208 335.45919,261.41198 336.26011,259.59811 C 341.07745,248.63247 344.28117,239.61025 345.08209,234.7458 C 345.36477,233.00261 345.40011,232.01321 345.27055,229.72822 C 345.11744,227.0192 344.9172,225.68825 344.25761,222.79077 C 343.59802,219.96397 343.38601,218.57413 343.35068,216.92516 C 343.32712,215.77087 343.36245,215.60598 343.64514,214.9935 C 344.39895,213.36809 345.68279,211.90758 351.74864,205.78284 C 354.4341,203.05025 357.24914,200.16456 357.99117,199.35185 C 366.0829,190.51809 371.61872,182.08479 375.29356,172.99191 C 376.68341,169.55263 378.29704,164.31126 378.01436,164.13459 C 377.86125,164.04037 371.66583,163.14521 371.60694,163.2041 C 371.58338,163.22765 371.38316,163.93435 371.14759,164.7824 C 369.01571,172.62678 364.09235,181.02474 356.50709,189.69361 C 354.7639,191.69593 349.36941,197.09041 347.27287,198.95139 C 344.65807,201.27172 340.8301,204.39298 340.74767,204.28698 C 340.7241,204.26343 339.47559,194.00449 337.96797,181.50765 C 336.46035,168.99904 335.1765,158.72833 335.12939,158.66944 C 335.07049,158.61054 333.60998,158.69298 331.52521,158.88144 C 329.59356,159.04633 327.94459,159.18768 327.87392,159.18768 C 327.66192,159.18768 327.6737,159.56459 328.07416,163.95791 C 329.98226,185.12361 331.79612,208.55075 332.36147,219.25727 C 332.77372,226.87786 332.73839,228.35016 332.12591,231.1534 C 330.91274,236.60677 327.42635,243.69734 322.18498,251.31794 C 319.44063,255.3108 315.45954,260.36371 313.66924,262.11868 C 312.98609,262.79005 312.88009,262.84894 312.6563,262.71938 C 310.0415,261.32954 301.63176,233.30883 296.46107,208.77453 C 294.35275,198.76294 293.46937,193.02687 293.36335,188.68067 C 293.25735,184.3109 293.46937,182.93284 294.89454,178.55129 C 295.38924,177.06721 295.91926,175.24157 296.08416,174.48775 C 296.70842,171.70806 297.12066,168.00966 297.33266,163.42789 C 297.43867,161.17822 297.49756,156.13709 297.42688,156.12531 C 297.29734,156.10175 292.51532,155.77196 292.37398,155.77196 C 292.20908,155.77196 292.17375,155.99575 292.10308,157.20892 C 291.80862,162.33251 290.87813,168.57503 289.72385,173.07435 C 289.00536,175.88938 287.10906,181.11897 286.62615,181.60188 C 286.56726,181.66077 286.26102,181.02474 285.90766,180.12958 C 281.21989,168.37479 277.30947,161.86137 270.51336,154.53523 C 268.61705,152.4858 263.55236,147.6449 262.09183,146.49063 C 261.92694,146.36106 261.65605,146.64374 259.94818,148.69317 z M 479.79109,296.37013 C 479.61441,296.87659 478.01255,301.2228 476.2458,306.04014 C 474.47905,310.84572 473.06565,314.81501 473.10097,314.85036 C 473.1481,314.89747 495.17362,309.7621 505.56211,307.27687 L 505.84479,307.20621 L 505.77413,309.84456 C 505.59745,315.92219 504.72584,320.60997 502.9002,325.3802 C 498.93091,335.73337 490.60361,345.41518 477.34118,355.10875 C 467.71828,362.12865 457.71846,367.2758 445.91655,371.26865 C 440.80475,373.00006 435.69295,374.4017 426.18781,376.67491 C 414.31524,379.5135 410.76996,380.60888 406.76532,382.69365 C 400.4639,385.96803 395.30497,392.87014 391.48879,403.10553 C 390.36985,406.08546 389.1449,410.27854 388.61488,412.92867 L 388.47353,413.61182 L 386.87169,412.04529 C 381.37119,406.68614 376.43607,402.5755 372.53743,400.10205 C 370.382,398.72399 366.80137,396.81589 363.52699,395.28471 C 361.73668,394.43666 356.97823,392.3519 356.04774,391.99855 C 355.88284,391.92788 356.49531,391.72764 358.20317,391.26829 C 373.05567,387.3461 385.38761,382.10474 391.73614,377.0047 C 395.99991,373.57721 398.09645,370.1026 404.51565,355.83902 C 405.79949,352.98865 407.26,349.77317 407.7547,348.70133 C 415.91709,331.16337 423.71436,320.59819 434.37377,312.62425 C 443.79645,305.56901 454.31451,300.48077 465.29194,297.65397 C 468.88433,296.72348 472.85364,296.005 476.06913,295.69876 C 476.78761,295.63987 477.5532,295.55741 477.77699,295.54565 C 478.00077,295.52208 478.62503,295.48675 479.15506,295.48675 L 480.13266,295.46319 L 479.79109,296.37013 z M 399.56874,349.72605 C 399.56874,349.83206 397.08351,355.27365 395.5641,358.47736 C 392.80797,364.33121 390.16962,368.94831 388.6031,370.65617 C 386.36521,373.10608 382.24279,375.42641 376.02382,377.74675 L 373.98616,378.51234 L 372.25475,378.04121 C 362.41983,375.35573 350.01722,368.51252 336.00098,358.04156 L 333.25663,356.00391 L 333.25663,352.82375 L 333.25663,349.6436 L 366.41269,349.6436 C 384.64557,349.6436 399.56874,349.67893 399.56874,349.72605 z " id="path10" style="fill:#000000;stroke:none"/>
    </g>
    <path d="M 492.8886,319.38502 C 490.70961,319.75015 488.57774,321.25778 487.68258,323.07164 C 487.23499,323.97858 487.08188,324.63817 487.08188,325.67466 C 487.08188,326.72293 487.23499,327.37074 487.70613,328.32479 C 488.15372,329.24349 489.21377,330.35067 490.20315,330.93959 C 495.04405,333.86061 501.68704,330.81002 501.68704,325.67466 C 501.68704,324.72061 501.47503,323.88434 501.0039,322.97742 C 499.62583,320.33907 496.22189,318.83143 492.8886,319.38502 z " id="path12" style="fill:#000000;stroke:none"/>
  </g>
</svg>

<svg height="723.76" viewBox="0 0 579 565" width="723.76" xmlns="http://www.w3.org/2000/svg"><g transform="matrix(.80215 0 0 .80215 6.184 4.798)"><g><path d="m176.6 169.61l-176.6 176.6 176.58 176.59 176.58 176.59 176.62-176.62 176.62-176.62-176.59-176.59-176.58-176.58-176.62 176.62m325.24 27.95l148.61 148.61-148.64 148.64-148.64 148.64-148.58-148.58c-81.72-81.72-148.58-148.63-148.58-148.7 0-.118 297.05-297.23 297.17-297.23.035 0 66.936 66.877 148.68 148.62" fill="#f00"/><path d="m259.95 148.69c-1.072 1.284-1.955 2.367-1.955 2.391 0 .012 1.048 1.095 2.332 2.391 2.685 2.721 4.087 4.323 6.02 6.89 2.544 3.369 4.37 6.349 6.254 10.188 3.922 7.962 6.372 16.925 7.526 27.502.53 4.782.836 10.224.836 14.829v2.756l-.766-.071c-2.415-.224-6.278-2.32-11.46-6.207-1.06-.789-4.853-3.781-8.433-6.643-8.751-6.996-11.778-9.246-15.418-11.425-1.637-.978-5.112-2.733-5.218-2.638-.047.059-2.992 5.665-2.992 5.713 0 .012.459.271 1.036.577 9.894 5.336 20.706 14.13 33.33 27.13 1.79 1.849 4.664 4.794 6.384 6.549 1.72 1.755 3.522 3.698 4.03 4.311 3.769 4.641 5.913 10.04 6.808 17.11.247 2.038.471 5.23.471 6.985v1.084l-.671.2c-.907.259-2.261.177-2.956-.177-.283-.141-1.378-.919-2.415-1.731-9.423-7.255-19.1-11.484-28.398-12.403-1.885-.188-5.983-.165-7.785.047-4.476.53-8.681 1.837-12.426 3.887-1.331.73-3.322 1.979-3.522 2.214-.082.118.518 1.048 2.297 3.534 1.319 1.873 2.379 3.439 2.344 3.51-.141.224.106.094.695-.353 4.311-3.298 10.447-4.44 17.444-3.251 14.947 2.532 31.22 14.499 36.925 27.15.683 1.531 1.461 3.922 1.79 5.536l.271 1.355-.012 11.778c-.012 6.478-.047 14.676-.106 18.221l-.082 6.455h-36.15-36.15v12.78 12.78h35.983 35.983l-.071 5.913c-.035 3.263-.106 7.432-.153 9.281l-.082 3.357-.377.707c-2.909 5.418-18.233 13.698-37.24 20.13-1.649.565-3.086 1.06-3.18 1.095-.565.271 9.258.483 12.897.283 6.384-.342 9.858-.883 18.14-2.839 5.359-1.26 7.232-1.531 10.565-1.531 8.06 0 13.227 2.697 17.408 9.09.989 1.508 2.297 3.969 3.062 5.807.283.648.518 1.19.53 1.213.012.012.283-.601.589-1.355.907-2.214 2.65-5.96 4.429-9.458 3.663-7.255 6.749-12.08 9.293-14.534 1.767-1.696 2.521-1.908 6.301-1.802 5.394.165 15.43 1.59 29.09 4.134 5.453 1.025 5.701 1.072 5.418 1.166-.966.306-5.347 1.578-9.187 2.674-11.26 3.215-16.11 4.864-20.14 6.831-1.637.801-3.828 2.132-3.828 2.332 0 .047 3.781 1.39 8.398 2.956 4.605 1.578 8.433 2.886 8.48 2.921.106.071-.236.283-3.274 2.132-12.191 7.373-27.903 14.9-43.874 20.989-7.314 2.791-14.994 5.336-19.67 6.513-1.201.294-1.72.365-2.768.365-1.637.012-2.108-.165-4.087-1.437-.789-.506-1.661-1.037-1.92-1.178-1.331-.671-3.663-1.025-5.371-.824-3 .353-12.544 2.992-27.432 7.585-11.743 3.628-33.686 10.683-33.686 10.836 0 .024 69.01.047 153.35.047h153.35v-9.717-9.717h-.259c-.153 0-4.723-.271-10.165-.601-9.482-.577-9.917-.612-10.518-.883-.448-.188-.624-.33-.589-.471.024-.118.612-.448 1.567-.872 2.721-1.201 4.02-2.049 5.654-3.698 1.013-1.013 1.272-1.355 1.743-2.309.683-1.366.942-2.521.883-3.852-.047-.824-.118-1.095-.506-1.885-.577-1.178-1.896-2.544-2.945-3.039l-.707-.342-4.77-.118c-7.774-.177-12.167.082-29.446 1.767-1.72.165-3.486.283-3.946.259-1.461-.094-2.085-.671-1.366-1.272.495-.424 4.464-1.696 13.934-4.464 9.752-2.862 12.721-3.946 15.229-5.606 1.743-1.154 2.909-2.65 3.227-4.158.989-4.688-3.557-10.506-13.12-16.808-2.897-1.896-7.01-4.264-9.976-5.724-.577-.283-1.036-.542-1.036-.577 0-.094 1.708-1.166 5.595-3.534 4.629-2.815 6.29-3.875 8.716-5.512 4.37-2.956 8.245-6.101 11.248-9.14l1.119-1.131h9.387 9.399v-12.78-12.78h-2.238c-1.225 0-2.238-.035-2.238-.094 0-.047.212-.907.459-1.908 1.296-5.088 2.132-10.754 2.473-16.843.153-2.591.294-6.949.224-6.949-.059 0-28.21 5.748-28.504 5.819-.141.035.459-1.885 2.509-7.962 1.484-4.405 2.697-8.03 2.697-8.06 0-.094-4.806-.047-7.07.071-19.47 1.025-34.793 5.642-48.03 14.511-4.535 3.03-8.563 6.396-13.262 11.02-3.298 3.274-5.701 6.04-8.07 9.352l-.73 1.036h-40.14-40.14l-.071-4.04c-.047-2.214-.118-9.246-.153-15.63l-.071-11.602 3.852-4.24c9.941-10.919 15.865-17.279 19.14-20.565l2.415-2.438.942-.247c.919-.236 4.429-1.013 11.248-2.485 4.382-.942 8.02-1.802 9.281-2.191.919-.271 1.084-.377 1.826-1.084 3.663-3.51 14.13-17.338 20.518-27.11 3.557-5.43 7.691-12.414 7.562-12.756-.047-.118-2.992-3.816-3.38-4.24-.047-.059-.636.636-1.296 1.531-7.526 10.11-25.724 29.787-29.717 32.13-.942.542-2.744.766-10.683 1.296-10.777.718-14.1 1.26-16.09 2.615-2.261 1.543-6.655 5.277-12.52 10.671-1.249 1.154-2.297 2.073-2.32 2.049-.035-.024.247-.671.612-1.449.353-.766 1.307-2.886 2.108-4.7 4.817-10.966 8.02-19.988 8.822-24.852.283-1.743.318-2.733.188-5.02-.153-2.709-.353-4.04-1.013-6.937-.66-2.827-.872-4.217-.907-5.866-.024-1.154.012-1.319.294-1.932.754-1.625 2.038-3.086 8.103-9.211 2.685-2.733 5.5-5.618 6.243-6.431 8.092-8.834 13.628-17.267 17.302-26.36 1.39-3.439 3-8.681 2.721-8.857-.153-.094-6.349-.989-6.407-.93-.024.024-.224.73-.459 1.578-2.132 7.844-7.06 16.242-14.64 24.911-1.743 2-7.138 7.397-9.234 9.258-2.615 2.32-6.443 5.442-6.525 5.336-.024-.024-1.272-10.282-2.78-22.779-1.508-12.509-2.791-22.779-2.839-22.838-.059-.059-1.519.024-3.604.212-1.932.165-3.581.306-3.651.306-.212 0-.2.377.2 4.77 1.908 21.17 3.722 44.593 4.287 55.3.412 7.621.377 9.09-.236 11.896-1.213 5.453-4.7 12.544-9.941 20.16-2.744 3.993-6.725 9.05-8.516 10.801-.683.671-.789.73-1.013.601-2.615-1.39-11.02-29.411-16.195-53.945-2.108-10.01-2.992-15.748-3.098-20.09-.106-4.37.106-5.748 1.531-10.129.495-1.484 1.025-3.31 1.19-4.064.624-2.78 1.036-6.478 1.248-11.06.106-2.25.165-7.291.094-7.303-.13-.024-4.912-.353-5.05-.353-.165 0-.2.224-.271 1.437-.294 5.124-1.225 11.366-2.379 15.865-.718 2.815-2.615 8.04-3.098 8.528-.059.059-.365-.577-.718-1.472-4.688-11.755-8.598-18.268-15.394-25.594-1.896-2.049-6.961-6.89-8.422-8.04-.165-.13-.436.153-2.144 2.203m219.84 147.68c-.177.506-1.779 4.853-3.545 9.67-1.767 4.806-3.18 8.775-3.145 8.81.047.047 22.07-5.088 32.461-7.573l.283-.071-.071 2.638c-.177 6.078-1.048 10.765-2.874 15.536-3.969 10.353-12.297 20.03-25.559 29.729-9.623 7.02-19.623 12.167-31.425 16.16-5.112 1.731-10.224 3.133-19.729 5.406-11.873 2.839-15.418 3.934-19.422 6.02-6.301 3.274-11.46 10.176-15.277 20.412-1.119 2.98-2.344 7.173-2.874 9.823l-.141.683-1.602-1.567c-5.5-5.359-10.436-9.47-14.334-11.943-2.155-1.378-5.736-3.286-9.01-4.817-1.79-.848-6.549-2.933-7.479-3.286-.165-.071.448-.271 2.155-.73 14.853-3.922 27.18-9.164 33.533-14.264 4.264-3.427 6.36-6.902 12.78-21.17 1.284-2.85 2.744-6.07 3.239-7.138 8.162-17.538 15.96-28.1 26.619-36.08 9.423-7.06 19.941-12.143 30.918-14.97 3.592-.93 7.562-1.649 10.777-1.955.718-.059 1.484-.141 1.708-.153.224-.024.848-.059 1.378-.059l.978-.024-.342.907m-80.22 53.36c0 .106-2.485 5.548-4 8.751-2.756 5.854-5.394 10.471-6.961 12.179-2.238 2.45-6.36 4.77-12.579 7.091l-2.038.766-1.731-.471c-9.835-2.685-22.24-9.529-36.25-20l-2.744-2.038v-3.18-3.18h33.16c18.233 0 33.16.035 33.16.082"/></g><path d="m492.89 319.39c-2.179.365-4.311 1.873-5.206 3.687-.448.907-.601 1.567-.601 2.603 0 1.048.153 1.696.624 2.65.448.919 1.508 2.026 2.497 2.615 4.841 2.921 11.484-.13 11.484-5.265 0-.954-.212-1.79-.683-2.697-1.378-2.638-4.782-4.146-8.115-3.592"/></g></svg>
